X:105
T:Lodoiska
S:John Moore's Book 2
Z:Transcribed by Steve Mansfield 05/2021
%%VWML: Moore2-4494-p82-0
F:http://www.vwml.org/record/Moore2/4494/p82
N:B2(Bd) (c2e2)A2c2 in Mss
M:2/4
L:1/16
K:Bb
F2 | B2B>B B2B2 | B3F GABc |  d2d>d d3d | d3A Bcde | 
f2f>f f2b2 | f2d>e f2b2 | f2de fedc | B6 ||
F2 | B2B2 {B}(AG)(AF) | B2B2 {B}(AG)(AF) | B2(Bc) (ed)cB | ABcd cABc | 
B2B2 {B}(AG)(AF) | B2B2 {B}(AG)(AF) | "*"B2(Bd) (ce)Ac | B6 ||
|: B2 | (A2f2)f2f2 | (fe)dc B2B2 | A2F2 F2(GA) | (BABc) (dcdB) | 
(A2a2)f2f2 | (fe)dc B2b2 | B2b2 (fe)dc | B2 b2 z2 :|

